; generated by PrusaSlicer 2.1.0+ on 2020-03-04 at 06:47:46 UTC

; 

; external perimeters extrusion width = 0.45mm
; perimeters extrusion width = 0.45mm
; infill extrusion width = 0.45mm
; solid infill extrusion width = 0.45mm
; top infill extrusion width = 0.40mm
; first layer extrusion width = 0.42mm

M73 P0 R129
M73 Q0 S129
M201 X1000 Y1000 Z1000 E5000 ; sets maximum accelerations, mm/sec^2
M203 X200 Y200 Z12 E120 ; sets maximum feedrates, mm/sec
M204 P1250 R1250 T1250 ; sets acceleration (P, T) and retract acceleration (R), mm/sec^2
M205 X8.00 Y8.00 Z0.40 E1.50 ; sets the jerk limits, mm/sec
M205 S0 T0 ; sets the minimum extruding and travel feed rate, mm/sec
M107
M115 U3.7.1 ; tell printer latest fw version
G90 ; use absolute coordinates
M83 ; extruder relative mode
M104 S250 ; set extruder temp
M140 S50 ; set bed temp
M190 S50 ; wait for bed temp
M109 S250 ; wait for extruder temp
G28 W ; home all without mesh bed level
G80 ; mesh bed leveling
G1 Y-3.0 F1000.0 ; go outside print area
G92 E0.0
G1 X60.0 E9.0 F1000.0 ; intro line
M73 Q0 S129
M73 P0 R129
G1 X100.0 E12.5 F1000.0 ; intro line
G92 E0.0
M221 S95
G21 ; set units to millimeters
G90 ; use absolute coordinates
M83 ; use relative distances for extrusion
M900 K10; Filament gcode
;BEFORE_LAYER_CHANGE
G92 E0.0
;0.2


G1 E-0.80000 F2100.00000
G1 Z0.600 F10800.000
;AFTER_LAYER_CHANGE
;0.2
G1 X77.364 Y71.152
G1 Z0.200
G1 E0.80000 F2100.00000
M204 S1000
G1 F1193.38
G1 X78.832 Y69.734 E0.07679
G1 X80.393 Y68.425 E0.07665
G1 X82.068 Y67.209 E0.07789
G1 X83.769 Y66.148 E0.07542
G1 X85.600 Y65.176 E0.07801
G1 X88.049 Y64.125 E0.10027
G1 X90.279 Y63.380 E0.08846
G1 X92.291 Y62.877 E0.07803
G1 X94.297 Y62.523 E0.07665
G1 X96.327 Y62.309 E0.07679
G1 X98.363 Y62.238 E0.07665
G1 X101.414 Y62.398 E0.11495
G1 X104.467 Y62.884 E0.11631
G1 X106.405 Y63.369 E0.07516
G1 X108.308 Y63.986 E0.07528
G1 X111.152 Y65.190 E0.11619
G1 X165.353 Y92.807 E2.28880
G1 X167.138 Y93.840 E0.07760
G1 X169.579 Y95.549 E0.11208
G1 X171.168 Y96.881 E0.07803
G1 X172.647 Y98.309 E0.07734
G1 X174.638 Y100.602 E0.11427
G1 X176.373 Y103.076 E0.11372
G1 X177.856 Y105.744 E0.11481
G1 X178.716 Y107.674 E0.07953
G1 X179.697 Y110.530 E0.11359
G1 X180.384 Y113.507 E0.11495
G1 X180.756 Y116.535 E0.11482
G1 X180.810 Y119.554 E0.11358
G1 X180.556 Y122.535 E0.11259
G1 X180.181 Y124.679 E0.08189
G1 X179.398 Y127.595 E0.11359
G1 X178.304 Y130.444 E0.11482
G1 X176.917 Y133.166 E0.11495
G1 X175.275 Y135.699 E0.11358
G1 X173.974 Y137.364 E0.07953
G1 X171.903 Y139.581 E0.11414
G1 X170.399 Y140.934 E0.07611
G1 X168.797 Y142.186 E0.07652
G1 X167.108 Y143.326 E0.07665
G1 X165.375 Y144.327 E0.07528
G1 X162.537 Y145.650 E0.11782
G1 X160.656 Y146.334 E0.07529
G1 X158.698 Y146.895 E0.07666
G1 X156.705 Y147.319 E0.07665
G1 X154.691 Y147.602 E0.07652
G1 X152.659 Y147.744 E0.07665
G1 X150.658 Y147.745 E0.07528
G1 X147.539 Y147.472 E0.11782
G1 X145.568 Y147.123 E0.07529
G1 X143.577 Y146.626 E0.07720
G1 X140.740 Y145.650 E0.11289
G1 X138.825 Y144.799 E0.07885
G1 X84.666 Y117.203 E2.28701
G1 X82.864 Y116.161 E0.07830
G1 X80.421 Y114.451 E0.11221
G1 X78.832 Y113.119 E0.07803
G1 X77.353 Y111.691 E0.07734
G1 X76.000 Y110.187 E0.07611
G1 X74.725 Y108.552 E0.07802
G1 X73.265 Y106.323 E0.10027
G1 X72.144 Y104.256 E0.08846
G1 X71.299 Y102.363 E0.07803
G1 X70.602 Y100.448 E0.07665
G1 X70.040 Y98.490 E0.07665
G1 X69.617 Y96.497 E0.07666
G1 X69.333 Y94.480 E0.07665
G1 X69.191 Y92.444 E0.07679
G1 X69.191 Y90.406 E0.07666
G1 X69.337 Y88.338 E0.07801
G1 X69.623 Y86.324 E0.07653
G1 X70.277 Y83.479 E0.10984
G1 X70.931 Y81.449 E0.08025
G1 X71.681 Y79.590 E0.07542
G1 X72.589 Y77.725 E0.07803
G1 X73.607 Y75.961 E0.07665
G1 X74.746 Y74.272 E0.07665
G1 X76.001 Y72.666 E0.07665
G1 X77.324 Y71.197 E0.07440
G1 F8640
G1 X78.832 Y69.734 E-0.48509
G1 X79.744 Y68.969 E-0.27491
G1 E-0.04000 F2100.00000
G1 Z0.800 F10800.000
G1 X148.590 Y116.680
G1 Z0.200
G1 E0.80000 F2100.00000
G1 F1193.38
G1 X148.811 Y116.364 E0.01452
G1 X149.064 Y116.073 E0.01452
G1 X149.521 Y115.676 E0.02276
G1 X149.845 Y115.466 E0.01452
G1 X150.179 Y115.295 E0.01413
G1 X150.530 Y115.161 E0.01413
G1 X150.893 Y115.064 E0.01413
G1 X151.263 Y115.005 E0.01412
G1 X151.642 Y114.985 E0.01428
G1 X152.251 Y115.037 E0.02300
G1 X152.628 Y115.124 E0.01453
G1 X152.992 Y115.250 E0.01452
G1 X153.531 Y115.525 E0.02276
G1 X153.848 Y115.746 E0.01452
G1 X154.131 Y115.992 E0.01413
G1 X154.387 Y116.267 E0.01413
G1 X154.613 Y116.567 E0.01413
G1 X154.806 Y116.889 E0.01412
G1 X154.967 Y117.232 E0.01428
G1 X155.146 Y117.817 E0.02300
G1 X155.207 Y118.198 E0.01453
G1 X155.227 Y118.583 E0.01452
G1 X155.174 Y119.186 E0.02276
G1 X155.088 Y119.562 E0.01452
G1 X154.965 Y119.917 E0.01413
G1 X154.807 Y120.258 E0.01413
G1 X154.613 Y120.579 E0.01413
G1 X154.387 Y120.879 E0.01413
G1 X154.131 Y121.154 E0.01413
G1 X153.848 Y121.400 E0.01413
G1 X153.531 Y121.622 E0.01452
G1 X152.992 Y121.896 E0.02276
G1 X152.628 Y122.022 E0.01452
G1 X152.252 Y122.109 E0.01452
G1 X151.639 Y122.162 E0.02315
G1 X151.026 Y122.109 E0.02315
G1 X150.650 Y122.022 E0.01452
G1 X150.295 Y121.900 E0.01413
G1 X149.954 Y121.741 E0.01413
G1 X149.632 Y121.548 E0.01413
G1 X149.332 Y121.322 E0.01413
G1 X149.058 Y121.065 E0.01413
G1 X148.811 Y120.782 E0.01413
G1 X148.590 Y120.466 E0.01452
G1 X148.315 Y119.927 E0.02276
G1 X148.190 Y119.562 E0.01452
G1 X148.103 Y119.186 E0.01452
G1 X148.049 Y118.573 E0.02315
G1 X148.103 Y117.960 E0.02315
G1 X148.190 Y117.584 E0.01452
G1 X148.315 Y117.219 E0.01452
G1 X148.563 Y116.734 E0.02051
G1 X148.899 Y116.905 F10800.000
G1 F1193.38
G1 X149.109 Y116.597 E0.01404
G1 X149.332 Y116.340 E0.01278
G1 X149.749 Y115.978 E0.02078
G1 X150.033 Y115.793 E0.01278
G1 X150.333 Y115.640 E0.01264
G1 X150.647 Y115.520 E0.01264
G1 X150.971 Y115.433 E0.01264
G1 X151.303 Y115.380 E0.01264
G1 X151.636 Y115.363 E0.01255
G1 X152.192 Y115.411 E0.02101
G1 X152.523 Y115.487 E0.01279
G1 X152.845 Y115.598 E0.01278
G1 X153.337 Y115.849 E0.02078
G1 X153.615 Y116.043 E0.01278
G1 X153.869 Y116.264 E0.01264
G1 X154.098 Y116.510 E0.01264
G1 X154.300 Y116.778 E0.01264
G1 X154.473 Y117.066 E0.01264
G1 X154.614 Y117.368 E0.01255
G1 X154.778 Y117.902 E0.02101
G1 X154.831 Y118.238 E0.01279
G1 X154.849 Y118.577 E0.01278
G1 X154.801 Y119.127 E0.02078
G1 X154.725 Y119.458 E0.01278
G1 X154.615 Y119.776 E0.01264
G1 X154.473 Y120.080 E0.01264
G1 X154.300 Y120.368 E0.01264
G1 X154.098 Y120.637 E0.01264
G1 X153.869 Y120.882 E0.01264
G1 X153.615 Y121.103 E0.01264
G1 X153.337 Y121.298 E0.01278
G1 X152.845 Y121.548 E0.02078
G1 X152.523 Y121.659 E0.01278
G1 X152.192 Y121.735 E0.01278
G1 X151.639 Y121.784 E0.02092
G1 X151.085 Y121.735 E0.02092
G1 X150.754 Y121.659 E0.01278
G1 X150.436 Y121.550 E0.01264
G1 X150.131 Y121.408 E0.01264
G1 X149.843 Y121.235 E0.01264
G1 X149.575 Y121.032 E0.01264
G1 X149.329 Y120.803 E0.01264
G1 X149.109 Y120.550 E0.01264
G1 X148.914 Y120.271 E0.01278
G1 X148.663 Y119.779 E0.02078
G1 X148.553 Y119.458 E0.01278
G1 X148.476 Y119.127 E0.01278
G1 X148.428 Y118.573 E0.02092
G1 X148.476 Y118.019 E0.02092
G1 X148.553 Y117.688 E0.01278
G1 X148.663 Y117.367 E0.01278
G1 X148.872 Y116.958 E0.01726
G1 X148.717 Y116.579 F10800.000
G1 F8640
G1 X149.109 Y116.597 E-0.09989
G1 X149.332 Y116.340 E-0.07844
G1 X149.749 Y115.978 E-0.12753
G1 X150.033 Y115.793 E-0.07844
G1 X150.333 Y115.640 E-0.07759
G1 X150.647 Y115.520 E-0.07759
G1 X150.971 Y115.433 E-0.07759
G1 X151.303 Y115.380 E-0.07757
G1 X151.586 Y115.365 E-0.06536
G1 E-0.04000 F2100.00000
G1 Z0.800 F10800.000
G1 X128.552 Y105.753
G1 Z0.200
G1 E0.80000 F2100.00000
G1 F1193.38
G1 X129.239 Y104.576 E0.05126
G1 X129.741 Y103.803 E0.03469
G1 X130.235 Y103.099 E0.03235
G1 X130.825 Y102.311 E0.03705
G1 X131.405 Y101.595 E0.03466
G1 X132.010 Y100.900 E0.03469
G1 X132.596 Y100.271 E0.03235
G1 X133.291 Y99.573 E0.03705
G1 X133.965 Y98.945 E0.03466
G1 X134.661 Y98.340 E0.03469
G1 X135.377 Y97.760 E0.03469
G1 X136.114 Y97.205 E0.03469
G1 X136.869 Y96.676 E0.03469
G1 X137.590 Y96.208 E0.03235
G1 X138.433 Y95.699 E0.03705
G1 X139.239 Y95.252 E0.03466
G1 X140.060 Y94.833 E0.03469
G1 X140.839 Y94.470 E0.03235
G1 X141.745 Y94.083 E0.03705
G1 X142.605 Y93.753 E0.03466
G1 X143.477 Y93.453 E0.03469
G1 X144.358 Y93.183 E0.03469
G1 X145.249 Y92.945 E0.03469
G1 X146.147 Y92.737 E0.03469
G1 X147.052 Y92.562 E0.03469
G1 X147.963 Y92.417 E0.03469
G1 X148.878 Y92.305 E0.03469
G1 X149.796 Y92.225 E0.03469
G1 X150.717 Y92.176 E0.03469
G1 X151.639 Y92.160 E0.03469
G1 X152.498 Y92.175 E0.03235
G1 X153.482 Y92.225 E0.03705
G1 X154.400 Y92.305 E0.03466
G1 X155.315 Y92.417 E0.03469
G1 X156.164 Y92.552 E0.03235
G1 X157.131 Y92.738 E0.03705
G1 X158.028 Y92.945 E0.03466
G1 X158.919 Y93.183 E0.03469
G1 X159.801 Y93.453 E0.03469
G1 X160.672 Y93.753 E0.03469
G1 X161.475 Y94.061 E0.03235
G1 X162.382 Y94.444 E0.03705
G1 X163.217 Y94.833 E0.03466
G1 X163.983 Y95.224 E0.03235
G1 X164.846 Y95.699 E0.03705
G1 X165.635 Y96.174 E0.03466
G1 X166.408 Y96.676 E0.03469
G1 X167.113 Y97.169 E0.03235
G1 X167.900 Y97.760 E0.03705
G1 X168.616 Y98.340 E0.03466
G1 X169.312 Y98.945 E0.03469
G1 X169.941 Y99.531 E0.03235
G1 X170.639 Y100.226 E0.03705
G1 X171.267 Y100.900 E0.03466
G1 X171.872 Y101.595 E0.03469
G1 X172.452 Y102.312 E0.03469
G1 X173.007 Y103.048 E0.03469
G1 X173.536 Y103.803 E0.03469
G1 X174.038 Y104.576 E0.03469
G1 X174.481 Y105.313 E0.03235
G1 X174.960 Y106.174 E0.03705
G1 X175.378 Y106.995 E0.03466
G1 X175.768 Y107.830 E0.03469
G1 X176.128 Y108.679 E0.03469
G1 X176.459 Y109.539 E0.03469
G1 X176.759 Y110.411 E0.03469
G1 X177.028 Y111.293 E0.03469
G1 X177.267 Y112.183 E0.03469
G1 X177.474 Y113.082 E0.03469
G1 X177.650 Y113.987 E0.03469
G1 X177.794 Y114.897 E0.03469
G1 X177.907 Y115.812 E0.03469
G1 X177.987 Y116.731 E0.03469
G1 X178.035 Y117.651 E0.03469
G1 X178.051 Y118.573 E0.03469
G1 X178.035 Y119.495 E0.03469
G1 X177.987 Y120.416 E0.03469
G1 X177.907 Y121.334 E0.03469
G1 X177.794 Y122.249 E0.03469
G1 X177.650 Y123.160 E0.03469
G1 X177.474 Y124.065 E0.03469
G1 X177.267 Y124.963 E0.03469
G1 X177.028 Y125.854 E0.03469
G1 X176.759 Y126.735 E0.03469
G1 X176.459 Y127.607 E0.03469
G1 X176.128 Y128.468 E0.03469
G1 X175.768 Y129.316 E0.03469
G1 X175.378 Y130.152 E0.03469
G1 X174.960 Y130.973 E0.03469
G1 X174.513 Y131.780 E0.03469
G1 X174.038 Y132.570 E0.03469
G1 X173.536 Y133.343 E0.03469
G1 X173.007 Y134.098 E0.03469
G1 X172.452 Y134.835 E0.03469
G1 X171.872 Y135.551 E0.03469
G1 X171.267 Y136.247 E0.03469
G1 X170.638 Y136.921 E0.03469
G1 X169.987 Y137.573 E0.03469
G1 X169.358 Y138.159 E0.03235
G1 X168.616 Y138.807 E0.03705
G1 X167.900 Y139.387 E0.03466
G1 X167.164 Y139.942 E0.03469
G1 X166.408 Y140.470 E0.03469
G1 X165.635 Y140.972 E0.03469
G1 X164.845 Y141.447 E0.03469
G1 X164.039 Y141.894 E0.03469
G1 X163.217 Y142.313 E0.03469
G1 X162.382 Y142.702 E0.03469
G1 X161.533 Y143.063 E0.03469
G1 X160.672 Y143.393 E0.03469
G1 X159.801 Y143.693 E0.03469
G1 X158.919 Y143.963 E0.03469
G1 X158.089 Y144.185 E0.03235
G1 X157.130 Y144.409 E0.03705
G1 X156.225 Y144.585 E0.03466
G1 X155.315 Y144.729 E0.03469
G1 X154.400 Y144.841 E0.03469
G1 X153.481 Y144.922 E0.03469
G1 X152.560 Y144.970 E0.03469
G1 X151.639 Y144.986 E0.03469
G1 X150.717 Y144.970 E0.03469
G1 X149.796 Y144.922 E0.03469
G1 X148.878 Y144.841 E0.03469
G1 X147.963 Y144.729 E0.03469
G1 X147.052 Y144.585 E0.03469
G1 X146.147 Y144.409 E0.03469
G1 X145.249 Y144.201 E0.03469
G1 X144.358 Y143.963 E0.03469
G1 X143.477 Y143.693 E0.03469
G1 X142.605 Y143.393 E0.03469
G1 X141.744 Y143.063 E0.03469
G1 X140.896 Y142.702 E0.03469
G1 X140.060 Y142.313 E0.03469
G1 X139.239 Y141.894 E0.03469
G1 X138.487 Y141.477 E0.03235
G1 X137.641 Y140.972 E0.03705
G1 X136.869 Y140.470 E0.03466
G1 X136.114 Y139.942 E0.03469
G1 X135.377 Y139.387 E0.03469
G1 X134.661 Y138.807 E0.03469
G1 X133.965 Y138.202 E0.03469
G1 X133.291 Y137.573 E0.03469
G1 X132.639 Y136.921 E0.03469
G1 X132.010 Y136.247 E0.03469
G1 X131.405 Y135.551 E0.03469
G1 X130.825 Y134.835 E0.03469
G1 X130.270 Y134.098 E0.03469
G1 X129.741 Y133.343 E0.03469
G1 X129.273 Y132.622 E0.03235
G1 X128.764 Y131.779 E0.03705
G1 X128.317 Y130.973 E0.03466
G1 X127.899 Y130.152 E0.03469
G1 X127.536 Y129.373 E0.03235
G1 X127.149 Y128.467 E0.03705
G1 X126.819 Y127.607 E0.03466
G1 X126.539 Y126.794 E0.03235
G1 X126.249 Y125.853 E0.03705
G1 X126.010 Y124.963 E0.03466
G1 X125.803 Y124.065 E0.03469
G1 X125.627 Y123.160 E0.03469
G1 X125.483 Y122.249 E0.03469
G1 X125.370 Y121.334 E0.03469
G1 X125.290 Y120.416 E0.03469
G1 X125.242 Y119.495 E0.03469
G1 X125.226 Y118.573 E0.03469
G1 X125.242 Y117.651 E0.03469
G1 X125.290 Y116.731 E0.03469
G1 X125.370 Y115.812 E0.03469
G1 X125.483 Y114.897 E0.03469
G1 X125.627 Y113.987 E0.03469
G1 X125.803 Y113.082 E0.03469
G1 X126.010 Y112.183 E0.03469
G1 X126.249 Y111.293 E0.03469
G1 X126.519 Y110.411 E0.03469
G1 X126.819 Y109.539 E0.03469
G1 X127.127 Y108.737 E0.03235
G1 X127.510 Y107.829 E0.03705
G1 X127.899 Y106.995 E0.03466
G1 X128.523 Y105.805 E0.05053
G1 X128.192 Y105.623 F10800.000
G1 F1193.38
G1 X128.919 Y104.377 E0.05430
G1 X129.429 Y103.592 E0.03518
G1 X129.929 Y102.878 E0.03283
G1 X130.528 Y102.079 E0.03755
G1 X131.116 Y101.353 E0.03517
G1 X131.730 Y100.647 E0.03518
G1 X132.325 Y100.009 E0.03283
G1 X133.029 Y99.302 E0.03755
G1 X133.713 Y98.664 E0.03517
G1 X134.418 Y98.051 E0.03518
G1 X135.145 Y97.462 E0.03518
G1 X135.892 Y96.900 E0.03518
G1 X136.658 Y96.363 E0.03518
G1 X137.390 Y95.888 E0.03283
G1 X138.244 Y95.372 E0.03755
G1 X139.061 Y94.919 E0.03517
G1 X139.895 Y94.494 E0.03518
G1 X140.685 Y94.126 E0.03283
G1 X141.603 Y93.734 E0.03755
G1 X142.476 Y93.399 E0.03517
G1 X143.360 Y93.094 E0.03518
G1 X144.254 Y92.821 E0.03518
G1 X145.158 Y92.579 E0.03518
G1 X146.069 Y92.369 E0.03518
G1 X146.987 Y92.190 E0.03518
G1 X147.910 Y92.044 E0.03518
G1 X148.838 Y91.930 E0.03518
G1 X149.770 Y91.848 E0.03518
G1 X150.704 Y91.799 E0.03518
G1 X151.639 Y91.783 E0.03518
G1 X152.511 Y91.798 E0.03283
G1 X153.508 Y91.848 E0.03755
G1 X154.439 Y91.930 E0.03517
G1 X155.367 Y92.044 E0.03518
G1 X156.229 Y92.180 E0.03283
G1 X157.209 Y92.369 E0.03755
G1 X158.120 Y92.579 E0.03517
G1 X159.023 Y92.821 E0.03518
G1 X159.917 Y93.094 E0.03518
G1 X160.801 Y93.399 E0.03518
G1 X161.616 Y93.711 E0.03283
G1 X162.535 Y94.099 E0.03755
G1 X163.383 Y94.494 E0.03517
G1 X164.160 Y94.891 E0.03283
G1 X165.034 Y95.372 E0.03755
G1 X165.835 Y95.854 E0.03517
G1 X166.619 Y96.363 E0.03518
G1 X167.334 Y96.864 E0.03283
G1 X168.132 Y97.463 E0.03755
G1 X168.859 Y98.051 E0.03517
G1 X169.565 Y98.664 E0.03518
G1 X170.203 Y99.259 E0.03283
G1 X170.910 Y99.963 E0.03755
G1 X171.547 Y100.647 E0.03517
G1 X172.161 Y101.353 E0.03518
G1 X172.749 Y102.080 E0.03518
G1 X173.312 Y102.826 E0.03518
G1 X173.849 Y103.592 E0.03518
G1 X174.358 Y104.377 E0.03518
G1 X174.807 Y105.124 E0.03283
G1 X175.293 Y105.996 E0.03755
G1 X175.717 Y106.829 E0.03517
G1 X176.112 Y107.677 E0.03518
G1 X176.478 Y108.537 E0.03518
G1 X176.813 Y109.410 E0.03518
G1 X177.117 Y110.295 E0.03518
G1 X177.391 Y111.189 E0.03518
G1 X177.633 Y112.092 E0.03518
G1 X177.843 Y113.003 E0.03518
G1 X178.022 Y113.921 E0.03518
G1 X178.168 Y114.845 E0.03518
G1 X178.282 Y115.773 E0.03518
G1 X178.363 Y116.704 E0.03518
G1 X178.412 Y117.638 E0.03518
G1 X178.429 Y118.573 E0.03518
G1 X178.412 Y119.508 E0.03518
G1 X178.363 Y120.442 E0.03518
G1 X178.282 Y121.373 E0.03518
G1 X178.168 Y122.302 E0.03518
G1 X178.022 Y123.225 E0.03518
G1 X177.843 Y124.143 E0.03518
G1 X177.633 Y125.054 E0.03518
G1 X177.391 Y125.957 E0.03518
G1 X177.117 Y126.852 E0.03518
G1 X176.813 Y127.736 E0.03518
G1 X176.478 Y128.609 E0.03518
G1 X176.112 Y129.470 E0.03518
G1 X175.717 Y130.317 E0.03518
G1 X175.293 Y131.150 E0.03518
G1 X174.839 Y131.968 E0.03518
G1 X174.358 Y132.770 E0.03518
G1 X173.849 Y133.554 E0.03518
G1 X173.312 Y134.320 E0.03518
G1 X172.749 Y135.067 E0.03518
G1 X172.161 Y135.793 E0.03518
G1 X171.547 Y136.499 E0.03518
G1 X170.910 Y137.183 E0.03518
G1 X170.248 Y137.844 E0.03518
G1 X169.610 Y138.439 E0.03283
G1 X168.859 Y139.096 E0.03755
G1 X168.132 Y139.684 E0.03517
G1 X167.385 Y140.247 E0.03518
G1 X166.619 Y140.783 E0.03518
G1 X165.835 Y141.292 E0.03518
G1 X165.034 Y141.774 E0.03518
