; generated by PrusaSlicer 2.2.0+ on 2020-05-14 at 09:15:09 UTC

; 

; external perimeters extrusion width = 0.45mm
; perimeters extrusion width = 0.45mm
; infill extrusion width = 0.45mm
; solid infill extrusion width = 0.45mm
; top infill extrusion width = 0.40mm
; first layer extrusion width = 0.42mm

M73 P0 R26
M73 Q0 S26
M201 X1000 Y1000 Z1000 E5000 ; sets maximum accelerations, mm/sec^2
M203 X200 Y200 Z12 E120 ; sets maximum feedrates, mm/sec
M204 P1250 R1250 T1250 ; sets acceleration (P, T) and retract acceleration (R), mm/sec^2
M205 X8.00 Y8.00 Z0.40 E4.50 ; sets the jerk limits, mm/sec
M205 S0 T0 ; sets the minimum extruding and travel feed rate, mm/sec
M107
M862.3 P "MK3S" ; printer model check
M862.1 P0.4 ; nozzle diameter check
M115 U3.8.1 ; tell printer latest fw version
G90 ; use absolute coordinates
M83 ; extruder relative mode
M104 S215 ; set extruder temp
M140 S60 ; set bed temp
M190 S60 ; wait for bed temp
M109 S215 ; wait for extruder temp
G28 W ; home all without mesh bed level
G80 ; mesh bed leveling
G1 Y-3.0 F1000.0 ; go outside print area
G92 E0.0
G1 X60.0 E9.0 F1000.0 ; intro line
M73 Q0 S26
M73 P0 R26
G1 X100.0 E12.5 F1000.0 ; intro line
G92 E0.0
M221 S95
G21 ; set units to millimeters
G90 ; use absolute coordinates
M83 ; use relative distances for extrusion
M900 K30 ; Filament gcode
;BEFORE_LAYER_CHANGE
G92 E0.0
;0.2


G1 E-0.80000 F2100.00000
G1 Z0.600 F10800.000
;AFTER_LAYER_CHANGE
;0.2
G1 X117.471 Y66.479
G1 Z0.200
G1 E0.80000 F2100.00000
M204 S1000
G1 F1200.000
G1 X118.178 Y65.345 E0.04189
G1 X118.792 Y64.537 E0.03183
G1 X119.694 Y63.552 E0.04189
G1 X120.695 Y62.668 E0.04189
G1 X121.516 Y62.067 E0.03186
G1 X122.661 Y61.381 E0.04186
G1 X123.907 Y60.805 E0.04304
G1 X125.176 Y60.375 E0.04202
G1 X126.159 Y60.140 E0.03170
G1 X127.481 Y59.949 E0.04189
G1 X128.816 Y59.899 E0.04189
G1 X129.831 Y59.954 E0.03186
G1 X131.188 Y60.156 E0.04301
G1 X132.485 Y60.493 E0.04202
G1 X133.731 Y60.962 E0.04176
G1 X134.645 Y61.404 E0.03183
G1 X135.789 Y62.095 E0.04189
G1 X136.853 Y62.902 E0.04189
G1 X137.604 Y63.587 E0.03186
G1 X138.500 Y64.571 E0.04173
G1 X139.293 Y65.651 E0.04202
G1 X139.812 Y66.514 E0.03157
G1 X140.397 Y67.728 E0.04227
G1 X140.856 Y69.014 E0.04279
G1 X141.171 Y70.320 E0.04214
G1 X141.349 Y71.682 E0.04304
G1 X141.385 Y72.696 E0.03183
G1 X141.311 Y74.030 E0.04189
G1 X141.097 Y75.349 E0.04189
G1 X140.844 Y76.328 E0.03170
G1 X140.391 Y77.589 E0.04202
G1 X139.793 Y78.824 E0.04304
G1 X139.085 Y79.957 E0.04189
G1 X138.471 Y80.766 E0.03183
G1 X137.566 Y81.754 E0.04202
G1 X136.536 Y82.661 E0.04304
G1 X135.445 Y83.433 E0.04189
G1 X134.566 Y83.940 E0.03183
G1 X133.353 Y84.500 E0.04189
G1 X132.088 Y84.928 E0.04189
G1 X131.099 Y85.164 E0.03186
G1 X129.778 Y85.354 E0.04185
G1 X128.406 Y85.404 E0.04304
G1 X127.069 Y85.309 E0.04202
G1 X126.067 Y85.145 E0.03186
G1 X124.775 Y84.808 E0.04185
G1 X123.490 Y84.324 E0.04304
G1 X122.294 Y83.719 E0.04202
G1 X121.437 Y83.183 E0.03170
G1 X120.375 Y82.373 E0.04189
G1 X119.404 Y81.455 E0.04189
G1 X118.735 Y80.697 E0.03170
G1 X117.948 Y79.618 E0.04189
G1 X117.278 Y78.462 E0.04189
G1 X116.852 Y77.539 E0.03186
G1 X116.406 Y76.285 E0.04173
G1 X116.093 Y74.983 E0.04202
G1 X115.915 Y73.621 E0.04304
G1 X115.878 Y72.607 E0.03183
G1 X115.952 Y71.273 E0.04189
G1 X116.166 Y69.954 E0.04189
G1 X116.419 Y68.975 E0.03170
G1 X116.872 Y67.714 E0.04202
G1 X117.444 Y66.533 E0.04116
G1 X117.783 Y66.697 F10800.000
G1 F1200.000
G1 X118.490 Y65.557 E0.04205
G1 X119.079 Y64.782 E0.03053
G1 X119.958 Y63.822 E0.04083
G1 X120.934 Y62.959 E0.04083
G1 X121.721 Y62.383 E0.03059
G1 X122.837 Y61.715 E0.04076
G1 X124.046 Y61.155 E0.04178
G1 X125.283 Y60.736 E0.04095
G1 X126.226 Y60.511 E0.03041
G1 X127.515 Y60.325 E0.04083
G1 X128.816 Y60.276 E0.04083
G1 X129.790 Y60.329 E0.03059
G1 X131.110 Y60.525 E0.04184
G1 X132.374 Y60.854 E0.04095
G1 X133.617 Y61.323 E0.04166
G1 X134.786 Y61.913 E0.04107
G1 X135.608 Y62.428 E0.03041
G1 X136.644 Y63.217 E0.04083
G1 X137.588 Y64.109 E0.04071
G1 X138.231 Y64.839 E0.03053
G1 X138.999 Y65.891 E0.04083
G1 X139.652 Y67.018 E0.04083
G1 X140.061 Y67.903 E0.03059
G1 X140.496 Y69.125 E0.04065
G1 X140.801 Y70.394 E0.04095
G1 X140.973 Y71.716 E0.04178
G1 X141.008 Y72.692 E0.03065
G1 X140.936 Y73.989 E0.04071
G1 X140.727 Y75.274 E0.04083
G1 X140.484 Y76.217 E0.03053
G1 X140.044 Y77.442 E0.04083
G1 X139.463 Y78.641 E0.04178
G1 X138.773 Y79.746 E0.04083
G1 X138.184 Y80.521 E0.03053
G1 X137.302 Y81.484 E0.04095
G1 X136.302 Y82.365 E0.04178
G1 X135.239 Y83.117 E0.04083
G1 X134.396 Y83.604 E0.03053
G1 X133.214 Y84.149 E0.04083
G1 X131.980 Y84.567 E0.04083
G1 X131.032 Y84.793 E0.03059
G1 X129.745 Y84.978 E0.04076
G1 X128.413 Y85.027 E0.04178
G1 X127.110 Y84.934 E0.04095
G1 X126.150 Y84.777 E0.03053
G1 X124.889 Y84.449 E0.04083
G1 X123.643 Y83.979 E0.04178
G1 X122.477 Y83.390 E0.04095
G1 X121.655 Y82.875 E0.03041
G1 X120.620 Y82.085 E0.04083
G1 X119.673 Y81.191 E0.04083
G1 X119.028 Y80.459 E0.03059
G1 X118.244 Y79.380 E0.04184
G1 X117.594 Y78.252 E0.04083
G1 X117.068 Y77.064 E0.04071
G1 X116.757 Y76.142 E0.03053
G1 X116.456 Y74.875 E0.04083
G1 X116.290 Y73.584 E0.04083
G1 X116.255 Y72.611 E0.03053
G1 X116.327 Y71.314 E0.04071
G1 X116.536 Y70.029 E0.04083
G1 X116.779 Y69.086 E0.03053
G1 X117.219 Y67.861 E0.04083
G1 X117.757 Y66.751 E0.03867
G1 F8640.000
G1 X118.490 Y65.557 E-0.32348
G1 X119.079 Y64.782 E-0.22481
G1 X119.698 Y64.106 E-0.21171
G1 E-0.04000 F2100.00000
G1 Z0.800 F10800.000
G1 X121.621 Y68.635
G1 Z0.200
G1 E0.80000 F2100.00000
G1 F1200.000
G1 X122.082 Y68.012 E0.02428
G1 X122.635 Y67.401 E0.02585
G1 X123.074 Y66.997 E0.01869
G1 X123.758 Y66.474 E0.02700
G1 X124.258 Y66.160 E0.01852
G1 X124.977 Y65.762 E0.02577
G1 X125.448 Y65.532 E0.01645
G1 X126.157 Y65.257 E0.02384
G1 X126.897 Y65.048 E0.02410
G1 X127.649 Y64.915 E0.02394
G1 X128.388 Y64.857 E0.02325
G1 X129.231 Y64.876 E0.02645
G1 X129.959 Y64.966 E0.02298
G1 X130.364 Y65.049 E0.01298
G1 X130.905 Y65.192 E0.01753
G1 X131.578 Y65.431 E0.02242
G1 X131.946 Y65.593 E0.01261
G1 X132.458 Y65.856 E0.01802
G1 X133.062 Y66.233 E0.02234
G1 X133.629 Y66.665 E0.02232
G1 X134.291 Y67.285 E0.02844
G1 X134.734 Y67.795 E0.02118
G1 X135.227 Y68.489 E0.02670
G1 X135.634 Y69.218 E0.02615
G1 X136.093 Y70.223 E0.03465
G1 X136.362 Y71.002 E0.02586
G1 X136.520 Y71.658 E0.02115
G1 X136.638 Y72.476 E0.02592
G1 X136.670 Y73.293 E0.02561
G1 X136.630 Y74.007 E0.02242
G1 X136.509 Y74.811 E0.02550
G1 X136.310 Y75.589 E0.02518
G1 X136.160 Y76.031 E0.01464
G1 X135.984 Y76.466 E0.01474
G1 X135.625 Y77.190 E0.02531
G1 X135.198 Y77.874 E0.02530
G1 X134.747 Y78.467 E0.02338
G1 X134.202 Y79.060 E0.02524
G1 X133.645 Y79.565 E0.02356
G1 X133.003 Y80.048 E0.02520
G1 X132.323 Y80.466 E0.02501
G1 X131.887 Y80.691 E0.01540
G1 X131.436 Y80.892 E0.01548
G1 X130.637 Y81.177 E0.02658
G1 X130.003 Y81.344 E0.02057
G1 X129.047 Y81.502 E0.03038
G1 X128.192 Y81.553 E0.02686
G1 X127.349 Y81.472 E0.02653
G1 X126.688 Y81.350 E0.02108
G1 X125.888 Y81.131 E0.02603
G1 X125.112 Y80.840 E0.02598
G1 X124.504 Y80.551 E0.02109
G1 X123.758 Y80.113 E0.02714
G1 X123.138 Y79.607 E0.02510
G1 X122.639 Y79.124 E0.02176
G1 X122.059 Y78.449 E0.02789
G1 X121.638 Y77.859 E0.02273
G1 X121.201 Y77.107 E0.02726
G1 X120.847 Y76.327 E0.02688
G1 X120.556 Y75.461 E0.02864
G1 X120.368 Y74.625 E0.02686
G1 X120.268 Y73.785 E0.02652
G1 X120.249 Y73.025 E0.02386
G1 X120.309 Y72.189 E0.02628
G1 X120.437 Y71.435 E0.02398
G1 X120.654 Y70.630 E0.02613
G1 X120.872 Y70.041 E0.01971
G1 X121.197 Y69.347 E0.02401
G1 X121.591 Y68.686 E0.02412
G1 X121.915 Y68.879 F10800.000
G1 F1200.000
G1 X122.374 Y68.251 E0.02439
G1 X122.903 Y67.667 E0.02473
G1 X123.317 Y67.286 E0.01762
G1 X123.973 Y66.784 E0.02590
G1 X124.450 Y66.485 E0.01765
G1 X125.152 Y66.097 E0.02515
G1 X125.600 Y65.878 E0.01565
G1 X126.277 Y65.615 E0.02278
G1 X126.981 Y65.416 E0.02294
G1 X127.696 Y65.289 E0.02277
G1 X128.398 Y65.234 E0.02208
G1 X129.204 Y65.253 E0.02526
G1 X129.898 Y65.339 E0.02193
G1 X130.279 Y65.416 E0.01218
G1 X130.793 Y65.552 E0.01669
G1 X131.439 Y65.782 E0.02149
G1 X131.784 Y65.934 E0.01183
G1 X132.272 Y66.184 E0.01718
G1 X132.848 Y66.544 E0.02130
G1 X133.385 Y66.953 E0.02117
G1 X134.019 Y67.547 E0.02723
G1 X134.437 Y68.028 E0.02000
G1 X134.908 Y68.691 E0.02548
G1 X135.297 Y69.388 E0.02504
G1 X135.742 Y70.363 E0.03360
G1 X136.000 Y71.108 E0.02473
G1 X136.150 Y71.729 E0.02003
G1 X136.262 Y72.511 E0.02475
G1 X136.292 Y73.289 E0.02444
G1 X136.255 Y73.968 E0.02130
G1 X136.139 Y74.736 E0.02435
G1 X135.948 Y75.481 E0.02413
G1 X135.807 Y75.899 E0.01384
G1 X135.640 Y76.312 E0.01395
G1 X135.296 Y77.006 E0.02428
G1 X134.888 Y77.660 E0.02417
G1 X134.457 Y78.225 E0.02228
G1 X133.936 Y78.793 E0.02416
G1 X133.405 Y79.274 E0.02248
G1 X132.790 Y79.736 E0.02411
G1 X132.137 Y80.137 E0.02402
G1 X131.723 Y80.351 E0.01462
G1 X131.295 Y80.542 E0.01469
G1 X130.526 Y80.817 E0.02562
G1 X129.924 Y80.974 E0.01951
G1 X129.005 Y81.127 E0.02921
G1 X128.199 Y81.175 E0.02532
G1 X127.402 Y81.098 E0.02510
G1 X126.772 Y80.982 E0.02007
G1 X126.004 Y80.771 E0.02498
G1 X125.259 Y80.492 E0.02494
G1 X124.681 Y80.218 E0.02007
G1 X123.974 Y79.803 E0.02571
G1 X123.389 Y79.325 E0.02368
G1 X122.914 Y78.865 E0.02073
G1 X122.356 Y78.216 E0.02682
G1 X121.956 Y77.654 E0.02164
G1 X121.537 Y76.934 E0.02612
G1 X121.198 Y76.188 E0.02568
G1 X120.919 Y75.359 E0.02742
G1 X120.741 Y74.561 E0.02565
G1 X120.644 Y73.758 E0.02536
G1 X120.627 Y73.033 E0.02273
G1 X120.684 Y72.234 E0.02514
G1 X120.806 Y71.516 E0.02284
G1 X121.014 Y70.745 E0.02503
G1 X121.221 Y70.186 E0.01868
G1 X121.531 Y69.524 E0.02293
G1 X121.884 Y68.931 E0.02165
G1 X121.736 Y68.521 F10800.000
G1 F8640.000
G1 X122.374 Y68.251 E-0.19343
G1 X122.903 Y67.667 E-0.18210
G1 X123.317 Y67.286 E-0.12977
G1 X123.973 Y66.784 E-0.19073
G1 X124.208 Y66.637 E-0.06397
G1 E-0.04000 F2100.00000
G1 Z0.800 F10800.000
G1 X119.945 Y74.259
G1 Z0.200
G1 E0.80000 F2100.00000
G1 F1200.000
G1 X119.847 Y73.598 E0.02095
G1 X119.802 Y72.979 E0.01946
G1 X119.802 Y72.333 E0.02028
G1 X119.849 Y71.688 E0.02028
G1 X119.938 Y71.073 E0.01946
G1 X120.079 Y70.433 E0.02055
G1 X120.366 Y69.530 E0.02972
G1 X120.613 Y68.942 E0.02000
G1 X120.906 Y68.365 E0.02028
G1 X121.225 Y67.833 E0.01946
G1 X121.598 Y67.305 E0.02028
G1 X122.211 Y66.582 E0.02972
G1 X122.912 Y65.917 E0.03029
G1 X123.674 Y65.338 E0.03000
G1 X124.214 Y65.000 E0.01998
G1 X124.778 Y64.701 E0.02001
G1 X125.369 Y64.440 E0.02028
G1 X126.268 Y64.138 E0.02972
G1 X126.897 Y63.988 E0.02028
G1 X127.509 Y63.888 E0.01946
G1 X128.153 Y63.829 E0.02026
G1 X128.801 Y63.818 E0.02031
G1 X129.737 Y63.885 E0.02943
G1 X130.383 Y63.991 E0.02055
G1 X131.310 Y64.232 E0.03002
G1 X132.188 Y64.563 E0.02943
G1 X132.770 Y64.845 E0.02028
G1 X133.583 Y65.334 E0.02972
G1 X134.112 Y65.721 E0.02055
G1 X134.829 Y66.354 E0.03000
G1 X135.473 Y67.061 E0.03000
G1 X135.849 Y67.555 E0.01946
G1 X136.358 Y68.365 E0.03000
G1 X136.650 Y68.942 E0.02028
G1 X136.900 Y69.538 E0.02026
G1 X137.186 Y70.442 E0.02973
G1 X137.325 Y71.073 E0.02028
G1 X137.445 Y72.023 E0.03000
G1 X137.461 Y72.324 E0.00946
G1 X137.445 Y73.280 E0.03000
G1 X137.325 Y74.230 E0.03000
G1 X137.186 Y74.861 E0.02028
G1 X137.002 Y75.481 E0.02028
G1 X136.650 Y76.361 E0.02972
G1 X136.207 Y77.199 E0.02972
G1 X135.854 Y77.741 E0.02028
G1 X135.462 Y78.256 E0.02028
G1 X135.267 Y78.485 E0.00945
G1 X134.749 Y79.022 E0.02341
G1 X135.036 Y78.710 E0.01332
G1 X135.509 Y78.089 E0.02447
G1 X135.955 Y77.374 E0.02643
G1 X136.328 Y76.621 E0.02633
G1 X136.514 Y76.162 E0.01553
G1 X136.672 Y75.696 E0.01543
G1 X136.879 Y74.886 E0.02622
G1 X137.006 Y74.045 E0.02665
G1 X137.047 Y73.296 E0.02354
G1 X137.014 Y72.442 E0.02679
G1 X136.891 Y71.587 E0.02709
G1 X136.724 Y70.896 E0.02227
G1 X136.444 Y70.082 E0.02700
G1 X135.970 Y69.047 E0.03570
G1 X135.546 Y68.287 E0.02727
G1 X135.031 Y67.561 E0.02793
G1 X134.563 Y67.023 E0.02236
G1 X133.873 Y66.376 E0.02965
G1 X133.277 Y65.923 E0.02348
G1 X132.644 Y65.528 E0.02339
G1 X132.109 Y65.253 E0.01887
G1 X131.718 Y65.080 E0.01340
G1 X131.016 Y64.831 E0.02335
G1 X130.450 Y64.681 E0.01836
G1 X130.019 Y64.594 E0.01378
G1 X129.259 Y64.499 E0.02403
G1 X128.378 Y64.480 E0.02764
G1 X127.601 Y64.540 E0.02442
G1 X126.813 Y64.680 E0.02510
G1 X126.038 Y64.899 E0.02525
G1 X125.297 Y65.186 E0.02491
G1 X124.803 Y65.428 E0.01724
G1 X124.067 Y65.835 E0.02638
G1 X123.543 Y66.164 E0.01939
G1 X122.831 Y66.708 E0.02810
G1 X122.367 Y67.135 E0.01977
G1 X121.790 Y67.772 E0.02696
G1 X121.307 Y68.426 E0.02546
G1 X120.863 Y69.170 E0.02717
G1 X120.524 Y69.895 E0.02510
G1 X120.295 Y70.515 E0.02074
G1 X120.068 Y71.354 E0.02723
G1 X119.934 Y72.143 E0.02512
G1 X119.872 Y73.016 E0.02742
G1 X119.891 Y73.812 E0.02499
G1 X119.938 Y74.199 E0.01222
G1 X119.561 Y74.254 F10800.000
G1 F1200.000
G1 X119.443 Y73.316 E0.02964
G1 X119.425 Y72.319 E0.03128
G1 X119.515 Y71.325 E0.03128
G1 X119.713 Y70.342 E0.03144
G1 X120.013 Y69.397 E0.03111
G1 X120.271 Y68.783 E0.02086
G1 X120.738 Y67.902 E0.03128
G1 X121.298 Y67.076 E0.03128
G1 X121.940 Y66.320 E0.03111
G1 X122.422 Y65.846 E0.02118
G1 X123.194 Y65.215 E0.03127
G1 X124.025 Y64.673 E0.03112
G1 X124.613 Y64.362 E0.02086
G1 X125.528 Y63.977 E0.03111
G1 X126.167 Y63.775 E0.02102
G1 X127.141 Y63.560 E0.03128
G1 X128.133 Y63.453 E0.03127
G1 X128.808 Y63.441 E0.02116
G1 X129.788 Y63.512 E0.03081
G1 X130.455 Y63.621 E0.02119
G1 X131.424 Y63.873 E0.03141
G1 X132.343 Y64.220 E0.03081
G1 X132.947 Y64.512 E0.02102
G1 X133.797 Y65.023 E0.03111
G1 X134.343 Y65.422 E0.02119
G1 X135.091 Y66.082 E0.03128
G1 X135.763 Y66.819 E0.03128
G1 X136.159 Y67.340 E0.02052
G1 X136.689 Y68.185 E0.03128
G1 X136.993 Y68.783 E0.02102
G1 X137.252 Y69.401 E0.02101
G1 X137.551 Y70.347 E0.03112
G1 X137.696 Y71.002 E0.02103
G1 X137.821 Y71.992 E0.03128
G1 X137.838 Y72.989 E0.03128
G1 X137.748 Y73.983 E0.03128
G1 X137.551 Y74.955 E0.03111
G1 X137.252 Y75.901 E0.03111
G1 X136.993 Y76.520 E0.02102
G1 X136.689 Y77.118 E0.02102
G1 X136.162 Y77.958 E0.03111
G1 X135.548 Y78.737 E0.03110
G1 X135.080 Y79.231 E0.02133
G1 X134.343 Y79.881 E0.03081
G1 X133.528 Y80.456 E0.03128
G1 X132.655 Y80.939 E0.03128
G1 X131.735 Y81.326 E0.03128
G1 X130.779 Y81.610 E0.03128
G1 X130.117 Y81.744 E0.02119
G1 X129.130 Y81.850 E0.03111
G1 X128.460 Y81.863 E0.02102
G1 X127.470 Y81.791 E0.03111
G1 X126.814 Y81.683 E0.02086
G1 X125.853 Y81.435 E0.03111
G1 X124.915 Y81.081 E0.03143
G1 X124.026 Y80.630 E0.03128
G1 X123.454 Y80.271 E0.02117
G1 X122.667 Y79.673 E0.03097
G1 X121.940 Y78.983 E0.03143
G1 X121.298 Y78.227 E0.03111
G1 X120.909 Y77.675 E0.02117
G1 X120.418 Y76.824 E0.03081
G1 X120.015 Y75.911 E0.03128
G1 X119.799 Y75.271 E0.02119
G1 X119.571 Y74.313 E0.03087
G1 X119.202 Y74.394 F10800.000
G1 F1200.000
G1 X119.098 Y73.686 E0.02244
G1 X119.048 Y73.000 E0.02159
G1 X119.048 Y72.305 E0.02177
G1 X119.098 Y71.613 E0.02177
G1 X119.197 Y70.931 E0.02159
G1 X119.347 Y70.251 E0.02183
G1 X119.660 Y69.263 E0.03250
G1 X119.928 Y68.625 E0.02171
G1 X120.242 Y68.006 E0.02177
G1 X120.597 Y67.416 E0.02159
G1 X120.997 Y66.848 E0.02177
G1 X121.668 Y66.058 E0.03250
G1 X122.165 Y65.570 E0.02183
G1 X122.429 Y65.337 E0.01105
G1 X122.968 Y64.912 E0.02152
G1 X123.257 Y64.710 E0.01105
G1 X123.837 Y64.346 E0.02146
G1 X124.448 Y64.022 E0.02171
G1 X125.084 Y63.742 E0.02177
G1 X126.066 Y63.411 E0.03250
G1 X126.741 Y63.250 E0.02177
G1 X127.421 Y63.138 E0.02159
G1 X128.112 Y63.076 E0.02177
G1 X128.815 Y63.064 E0.02202
G1 X129.839 Y63.138 E0.03219
G1 X130.526 Y63.250 E0.02183
G1 X130.860 Y63.324 E0.01074
G1 X131.538 Y63.513 E0.02208
G1 X132.499 Y63.876 E0.03219
G1 X133.124 Y64.179 E0.02177
G1 X134.012 Y64.713 E0.03250
G1 X134.839 Y65.341 E0.03256
G1 X135.353 Y65.811 E0.02183
G1 X136.053 Y66.578 E0.03256
G1 X136.470 Y67.126 E0.02159
G1 X137.021 Y68.006 E0.03256
G1 X137.335 Y68.625 E0.02177
G1 X137.604 Y69.265 E0.02177
G1 X137.917 Y70.253 E0.03250
G1 X138.066 Y70.931 E0.02177
G1 X138.197 Y71.961 E0.03256
G1 X138.215 Y73.000 E0.03256
G1 X138.121 Y74.034 E0.03256
G1 X137.917 Y75.050 E0.03250
G1 X137.604 Y76.038 E0.03250
G1 X137.335 Y76.678 E0.02177
G1 X137.021 Y77.297 E0.02177
G1 X136.471 Y78.176 E0.03250
G1 X135.829 Y78.989 E0.03250
