; generated by PrusaSlicer 2.2.0+ on 2020-05-14 at 08:34:57 UTC

; 

; external perimeters extrusion width = 0.45mm
; perimeters extrusion width = 0.45mm
; infill extrusion width = 0.45mm
; solid infill extrusion width = 0.45mm
; top infill extrusion width = 0.40mm
; first layer extrusion width = 0.42mm

M73 P0 R54
M73 Q0 S54
M201 X1000 Y1000 Z1000 E5000 ; sets maximum accelerations, mm/sec^2
M203 X200 Y200 Z12 E120 ; sets maximum feedrates, mm/sec
M204 P1250 R1250 T1250 ; sets acceleration (P, T) and retract acceleration (R), mm/sec^2
M205 X8.00 Y8.00 Z0.40 E4.50 ; sets the jerk limits, mm/sec
M205 S0 T0 ; sets the minimum extruding and travel feed rate, mm/sec
M107
M862.3 P "MK3S" ; printer model check
M862.1 P0.4 ; nozzle diameter check
M115 U3.8.1 ; tell printer latest fw version
G90 ; use absolute coordinates
M83 ; extruder relative mode
M104 S215 ; set extruder temp
M140 S60 ; set bed temp
M190 S60 ; wait for bed temp
M109 S215 ; wait for extruder temp
G28 W ; home all without mesh bed level
G80 ; mesh bed leveling
G1 Y-3.0 F1000.0 ; go outside print area
G92 E0.0
G1 X60.0 E9.0 F1000.0 ; intro line
M73 Q0 S54
M73 P0 R54
G1 X100.0 E12.5 F1000.0 ; intro line
G92 E0.0
M221 S95
G21 ; set units to millimeters
G90 ; use absolute coordinates
M83 ; use relative distances for extrusion
M900 K30 ; Filament gcode
;BEFORE_LAYER_CHANGE
G92 E0.0
;0.2


G1 E-0.80000 F2100.00000
G1 Z0.600 F10800.000
;AFTER_LAYER_CHANGE
;0.2
G1 X149.742 Y85.003
G1 Z0.200
G1 E0.80000 F2100.00000
M204 S1000
G1 F1200.000
G1 X150.400 Y85.635 E0.02860
G1 X150.718 Y86.274 E0.02237
G1 X150.832 Y86.978 E0.02237
G1 X150.832 Y129.032 E1.31860
G1 X150.758 Y129.590 E0.01763
G1 X150.558 Y130.111 E0.01752
G1 X150.238 Y130.574 E0.01763
G1 X149.822 Y130.947 E0.01752
G1 X149.180 Y131.266 E0.02249
G1 X148.475 Y131.379 E0.02237
G1 X102.429 Y131.379 E1.44376
G1 X101.871 Y131.306 E0.01763
G1 X101.349 Y131.106 E0.01752
G1 X100.886 Y130.787 E0.01763
G1 X100.510 Y130.369 E0.01763
G1 X100.191 Y129.727 E0.02249
G1 X100.078 Y129.022 E0.02237
G1 X100.078 Y86.998 E1.31763
G1 X100.146 Y86.440 E0.01763
G1 X100.364 Y85.873 E0.01906
G1 X103.722 Y79.807 E0.21740
G1 X104.079 Y79.343 E0.01835
G1 X104.542 Y78.979 E0.01846
G1 X105.086 Y78.737 E0.01868
G1 X105.711 Y78.627 E0.01987
G1 X113.105 Y78.625 E0.23184
G1 X148.894 Y84.666 E1.13803
G1 X149.686 Y84.981 E0.02672
G1 F8640.000
G1 X150.400 Y85.635 E-0.22354
G1 X150.718 Y86.274 E-0.16472
G1 X150.832 Y86.978 E-0.16472
G1 X150.832 Y87.874 E-0.20701
G1 E-0.04000 F2100.00000
G1 Z0.800 F10800.000
G1 X125.065 Y116.826
G1 Z0.200
G1 E0.80000 F2100.00000
G1 F1200.000
G1 X125.585 Y117.231 E0.02067
G1 X126.062 Y117.689 E0.02075
G1 X126.488 Y118.195 E0.02072
G1 X126.864 Y118.752 E0.02109
G1 X127.169 Y119.324 E0.02032
G1 X127.418 Y119.935 E0.02067
G1 X127.601 Y120.570 E0.02075
G1 X127.717 Y121.221 E0.02071
G1 X127.765 Y121.879 E0.02069
G1 X127.743 Y122.540 E0.02074
G1 X127.652 Y123.194 E0.02071
G1 X127.493 Y123.838 E0.02080
G1 X127.269 Y124.457 E0.02062
G1 X126.980 Y125.051 E0.02071
G1 X126.631 Y125.612 E0.02073
G1 X126.226 Y126.133 E0.02069
G1 X125.766 Y126.611 E0.02080
G1 X125.263 Y127.035 E0.02062
G1 X124.716 Y127.405 E0.02071
G1 X124.160 Y127.702 E0.01977
G1 X123.521 Y127.965 E0.02165
G1 X122.897 Y128.142 E0.02034
G1 X122.226 Y128.239 E0.02125
G1 X121.575 Y128.263 E0.02044
G1 X120.927 Y128.252 E0.02032
G1 X120.272 Y128.193 E0.02062
G1 X119.623 Y128.040 E0.02089
G1 X119.001 Y127.816 E0.02075
G1 X118.409 Y127.529 E0.02063
G1 X117.846 Y127.178 E0.02080
G1 X117.325 Y126.773 E0.02067
G1 X116.848 Y126.315 E0.02075
G1 X116.423 Y125.810 E0.02071
G1 X116.054 Y125.265 E0.02062
G1 X115.741 Y124.680 E0.02080
G1 X115.493 Y124.069 E0.02067
G1 X115.309 Y123.434 E0.02075
G1 X115.193 Y122.783 E0.02071
G1 X115.146 Y122.124 E0.02071
G1 X115.168 Y121.464 E0.02073
G1 X115.258 Y120.810 E0.02069
G1 X115.418 Y120.166 E0.02080
G1 X115.641 Y119.548 E0.02062
G1 X115.930 Y118.953 E0.02071
G1 X116.279 Y118.392 E0.02073
G1 X116.685 Y117.871 E0.02069
G1 X117.145 Y117.393 E0.02080
G1 X117.648 Y116.969 E0.02062
G1 X118.195 Y116.599 E0.02071
G1 X118.778 Y116.288 E0.02073
G1 X119.389 Y116.039 E0.02069
G1 X120.026 Y115.855 E0.02080
G1 X120.674 Y115.740 E0.02062
G1 X121.301 Y115.695 E0.01971
G1 X121.993 Y115.714 E0.02169
G1 X122.647 Y115.805 E0.02073
G1 X123.289 Y115.964 E0.02071
G1 X123.910 Y116.188 E0.02071
G1 X124.501 Y116.475 E0.02062
G1 X125.014 Y116.794 E0.01892
G1 X125.427 Y116.656 F10800.000
G1 F8640.000
G1 X125.585 Y117.231 E-0.16602
G1 X126.062 Y117.689 E-0.15281
G1 X126.488 Y118.195 E-0.15257
G1 X126.864 Y118.752 E-0.15534
G1 X127.136 Y119.261 E-0.13326
G1 E-0.04000 F2100.00000
G1 Z0.800 F10800.000
G1 X113.312 Y113.585
G1 Z0.200
G1 E0.80000 F2100.00000
G1 F1200.000
G1 X113.241 Y113.676 E0.00362
G1 X113.089 Y113.777 E0.00571
G1 X112.887 Y113.812 E0.00643
G1 X112.644 Y113.779 E0.00771
G1 X112.567 Y113.740 E0.00270
G1 X112.447 Y113.634 E0.00501
G1 X112.327 Y113.436 E0.00726
G1 X112.290 Y113.328 E0.00359
G1 X112.254 Y113.011 E0.01000
G1 X112.230 Y112.391 E0.01946
G1 X112.190 Y112.195 E0.00627
G1 X112.299 Y112.279 E0.00433
G1 X112.913 Y112.553 E0.02108
G1 X113.207 Y112.721 E0.01059
G1 X113.296 Y112.807 E0.00390
G1 X113.332 Y112.872 E0.00232
G1 X113.390 Y113.140 E0.00861
G1 X113.362 Y113.495 E0.01118
G1 X113.341 Y113.533 E0.00134
G1 F8640.000
G1 X113.241 Y113.676 E-0.04041
G1 X113.089 Y113.777 E-0.04207
G1 X112.887 Y113.812 E-0.04732
G1 X112.644 Y113.779 E-0.05676
G1 X112.567 Y113.740 E-0.01990
G1 X112.447 Y113.634 E-0.03690
G1 X112.327 Y113.436 E-0.05345
G1 X112.290 Y113.328 E-0.02647
G1 X112.254 Y113.011 E-0.07361
G1 X112.230 Y112.391 E-0.14333
G1 X112.190 Y112.195 E-0.04620
G1 X112.299 Y112.279 E-0.03191
G1 X112.860 Y112.529 E-0.14166
G1 E-0.04000 F2100.00000
G1 Z0.800 F10800.000
G1 X130.466 Y120.016
G1 Z0.200
G1 E0.80000 F2100.00000
G1 F1200.000
G1 X130.705 Y119.404 E0.02061
G1 X131.007 Y118.818 E0.02066
G1 X131.370 Y118.265 E0.02077
G1 X131.789 Y117.754 E0.02071
G1 X132.261 Y117.287 E0.02080
G1 X132.774 Y116.876 E0.02061
G1 X133.329 Y116.520 E0.02066
G1 X133.920 Y116.223 E0.02077
G1 X134.538 Y115.990 E0.02071
G1 X135.180 Y115.822 E0.02080
G1 X135.829 Y115.723 E0.02059
G1 X136.489 Y115.692 E0.02070
G1 X137.149 Y115.730 E0.02075
G1 X137.801 Y115.837 E0.02071
G1 X138.438 Y116.011 E0.02071
G1 X139.053 Y116.251 E0.02069
G1 X139.640 Y116.554 E0.02070
G1 X140.192 Y116.917 E0.02075
G1 X140.704 Y117.336 E0.02071
G1 X141.168 Y117.805 E0.02071
G1 X141.580 Y118.320 E0.02069
G1 X141.937 Y118.876 E0.02070
G1 X142.234 Y119.467 E0.02075
G1 X142.467 Y120.085 E0.02071
G1 X142.635 Y120.724 E0.02071
G1 X142.735 Y121.377 E0.02071
G1 X142.766 Y122.042 E0.02087
G1 X142.727 Y122.696 E0.02055
G1 X142.620 Y123.348 E0.02071
G1 X142.446 Y123.985 E0.02071
G1 X142.206 Y124.600 E0.02071
G1 X141.904 Y125.186 E0.02066
G1 X141.540 Y125.739 E0.02077
G1 X141.121 Y126.250 E0.02071
G1 X140.652 Y126.715 E0.02071
G1 X140.136 Y127.128 E0.02071
G1 X139.582 Y127.484 E0.02066
G1 X138.990 Y127.781 E0.02077
G1 X138.371 Y128.014 E0.02074
G1 X137.726 Y128.177 E0.02084
G1 X137.070 Y128.248 E0.02071
G1 X136.423 Y128.264 E0.02030
G1 X135.771 Y128.244 E0.02043
G1 X135.119 Y128.164 E0.02061
G1 X134.473 Y127.993 E0.02097
G1 X133.857 Y127.753 E0.02070
G1 X133.271 Y127.450 E0.02070
G1 X132.718 Y127.087 E0.02075
G1 X132.210 Y126.671 E0.02059
G1 X131.742 Y126.199 E0.02082
G1 X131.330 Y125.684 E0.02069
G1 X130.973 Y125.128 E0.02070
G1 X130.676 Y124.537 E0.02075
G1 X130.444 Y123.922 E0.02059
G1 X130.275 Y123.280 E0.02082
G1 X130.176 Y122.627 E0.02071
G1 X130.145 Y121.969 E0.02066
G1 X130.183 Y121.308 E0.02077
G1 X130.290 Y120.656 E0.02071
G1 X130.450 Y120.074 E0.01892
G1 X130.200 Y119.717 F10800.000
G1 F8640.000
G1 X130.705 Y119.404 E-0.16560
G1 X131.007 Y118.818 E-0.15212
G1 X131.370 Y118.265 E-0.15293
G1 X131.789 Y117.754 E-0.15253
G1 X132.210 Y117.337 E-0.13682
G1 E-0.04000 F2100.00000
G1 Z0.800 F10800.000
G1 X135.280 Y100.202
G1 Z0.200
G1 E0.80000 F2100.00000
G1 F1200.000
G1 X134.637 Y100.045 E0.02075
G1 X134.015 Y99.822 E0.02071
G1 X133.423 Y99.536 E0.02063
G1 X132.858 Y99.187 E0.02081
G1 X132.316 Y98.764 E0.02155
G1 X131.859 Y98.326 E0.01985
G1 X131.432 Y97.822 E0.02071
G1 X131.062 Y97.278 E0.02062
G1 X130.748 Y96.694 E0.02080
G1 X130.498 Y96.084 E0.02068
G1 X130.313 Y95.449 E0.02075
G1 X130.195 Y94.799 E0.02071
G1 X130.146 Y94.140 E0.02071
G1 X130.166 Y93.479 E0.02073
G1 X130.255 Y92.825 E0.02069
G1 X130.413 Y92.181 E0.02079
G1 X130.635 Y91.562 E0.02063
G1 X130.922 Y90.967 E0.02071
G1 X131.270 Y90.405 E0.02073
G1 X131.674 Y89.883 E0.02069
G1 X132.120 Y89.417 E0.02023
G1 X132.635 Y88.979 E0.02118
G1 X133.181 Y88.607 E0.02072
G1 X133.764 Y88.294 E0.02073
G1 X134.375 Y88.044 E0.02071
G1 X135.014 Y87.862 E0.02085
G1 X135.670 Y87.766 E0.02079
G1 X136.291 Y87.742 E0.01948
G1 X136.967 Y87.751 E0.02120
G1 X137.624 Y87.809 E0.02068
G1 X138.272 Y87.959 E0.02085
G1 X138.895 Y88.182 E0.02075
G1 X139.488 Y88.468 E0.02063
G1 X140.052 Y88.817 E0.02081
G1 X140.594 Y89.240 E0.02155
G1 X141.051 Y89.678 E0.01985
G1 X141.478 Y90.182 E0.02071
G1 X141.848 Y90.726 E0.02062
G1 X142.163 Y91.310 E0.02080
G1 X142.412 Y91.920 E0.02068
G1 X142.598 Y92.555 E0.02075
G1 X142.715 Y93.205 E0.02071
G1 X142.764 Y93.864 E0.02071
G1 X142.744 Y94.524 E0.02072
G1 X142.655 Y95.179 E0.02070
G1 X142.497 Y95.823 E0.02079
G1 X142.275 Y96.442 E0.02063
G1 X141.988 Y97.037 E0.02071
G1 X141.640 Y97.599 E0.02073
G1 X141.236 Y98.121 E0.02069
G1 X140.790 Y98.587 E0.02023
G1 X140.276 Y99.025 E0.02118
G1 X139.729 Y99.397 E0.02072
G1 X139.147 Y99.710 E0.02073
G1 X138.536 Y99.960 E0.02069
G1 X137.899 Y100.145 E0.02079
G1 X137.252 Y100.262 E0.02063
G1 X136.593 Y100.311 E0.02071
G1 X135.932 Y100.291 E0.02073
G1 X135.339 Y100.210 E0.01877
G1 X135.019 Y100.505 F10800.000
G1 F8640.000
G1 X134.637 Y100.045 E-0.16656
G1 X134.015 Y99.822 E-0.15253
G1 X133.423 Y99.536 E-0.15189
G1 X132.858 Y99.187 E-0.15324
G1 X132.395 Y98.825 E-0.13579
G1 E-0.04000 F2100.00000
G1 Z0.800 F10800.000
G1 X127.189 Y96.638
G1 Z0.200
G1 E0.80000 F2100.00000
G1 F1200.000
G1 X126.882 Y97.222 E0.02069
G1 X126.516 Y97.772 E0.02073
G1 X126.094 Y98.281 E0.02071
G1 X125.621 Y98.742 E0.02071
G1 X125.103 Y99.152 E0.02071
G1 X124.545 Y99.504 E0.02069
G1 X123.952 Y99.798 E0.02073
G1 X123.333 Y100.027 E0.02071
G1 X122.693 Y100.190 E0.02071
G1 X122.039 Y100.286 E0.02071
G1 X121.380 Y100.312 E0.02069
G1 X120.720 Y100.270 E0.02073
G1 X120.072 Y100.159 E0.02062
G1 X119.433 Y99.980 E0.02080
G1 X118.819 Y99.736 E0.02071
G1 X118.234 Y99.429 E0.02071
G1 X117.685 Y99.062 E0.02072
G1 X117.164 Y98.628 E0.02126
G1 X116.715 Y98.168 E0.02015
G1 X116.306 Y97.650 E0.02071
G1 X115.952 Y97.091 E0.02071
G1 X115.660 Y96.499 E0.02071
G1 X115.431 Y95.882 E0.02062
G1 X115.267 Y95.240 E0.02080
G1 X115.172 Y94.586 E0.02071
G1 X115.145 Y93.927 E0.02069
G1 X115.188 Y93.267 E0.02074
G1 X115.299 Y92.616 E0.02071
G1 X115.478 Y91.978 E0.02076
G1 X115.721 Y91.366 E0.02066
G1 X116.028 Y90.782 E0.02069
G1 X116.395 Y90.232 E0.02073
G1 X116.817 Y89.723 E0.02071
G1 X117.291 Y89.261 E0.02076
G1 X117.808 Y88.852 E0.02066
G1 X118.365 Y88.500 E0.02069
G1 X118.958 Y88.206 E0.02074
G1 X119.579 Y87.977 E0.02075
G1 X120.226 Y87.820 E0.02090
G1 X120.881 Y87.754 E0.02064
G1 X121.221 Y87.747 E0.01066
G1 X122.176 Y87.762 E0.02995
G1 X122.838 Y87.849 E0.02091
G1 X123.477 Y88.024 E0.02078
G1 X124.091 Y88.268 E0.02073
G1 X124.676 Y88.575 E0.02071
G1 X125.226 Y88.942 E0.02071
G1 X125.734 Y89.363 E0.02071
G1 X126.195 Y89.836 E0.02071
G1 X126.605 Y90.354 E0.02071
G1 X126.958 Y90.913 E0.02071
G1 X127.251 Y91.505 E0.02071
G1 X127.480 Y92.124 E0.02071
G1 X127.643 Y92.764 E0.02071
G1 X127.739 Y93.418 E0.02071
G1 X127.765 Y94.082 E0.02083
G1 X127.723 Y94.737 E0.02060
G1 X127.612 Y95.388 E0.02071
G1 X127.433 Y96.024 E0.02071
G1 X127.211 Y96.582 E0.01883
G1 X127.420 Y96.964 F10800.000
G1 F8640.000
G1 X126.882 Y97.222 E-0.16614
G1 X126.516 Y97.772 E-0.15270
G1 X126.094 Y98.281 E-0.15252
G1 X125.621 Y98.742 E-0.15252
G1 X125.158 Y99.108 E-0.13613
G1 E-0.04000 F2100.00000
G1 Z0.800 F10800.000
G1 X112.984 Y113.027
G1 Z0.200
G1 E0.80000 F2100.00000
G1 F1200.000
G1 X113.014 Y113.166 E0.00443
G1 X112.996 Y113.377 E0.00666
G1 X112.940 Y113.427 E0.00234
G1 X112.775 Y113.420 E0.00520
G1 X112.740 Y113.389 E0.00146
G1 X112.660 Y113.244 E0.00517
G1 X112.624 Y112.837 E0.01283
G1 X112.932 Y112.998 E0.01087
G1 F8640.000
G1 X113.014 Y113.166 E-0.04317
G1 X112.996 Y113.377 E-0.04908
G1 X112.940 Y113.427 E-0.01720
G1 X112.775 Y113.420 E-0.03827
G1 X112.740 Y113.389 E-0.01077
G1 X112.660 Y113.244 E-0.03811
G1 X112.624 Y112.837 E-0.09450
G1 X112.932 Y112.998 E-0.08004
G1 E-0.42886 F2100.00000
G1 Z0.800 F10800.000
G1 X108.793 Y113.762
G1 Z0.200
G1 E0.80000 F2100.00000
G1 F1200.000
G1 X108.661 Y113.838 E0.00475
G1 X108.557 Y113.859 E0.00335
G1 X108.380 Y113.872 E0.00554
G1 X108.165 Y113.845 E0.00682
G1 X108.026 Y113.780 E0.00480
G1 X107.898 Y113.677 E0.00515
G1 X107.783 Y113.468 E0.00747
G1 X107.763 Y113.315 E0.00485
G1 X107.788 Y113.124 E0.00602
G1 X107.868 Y113.018 E0.00417
G1 X108.260 Y112.767 E0.01461
G1 X108.865 Y112.507 E0.02063
G1 X108.912 Y113.362 E0.02685
G1 X108.884 Y113.621 E0.00818
G1 X108.827 Y113.713 E0.00339
G1 F8640.000
G1 X108.661 Y113.838 E-0.04790
G1 X108.557 Y113.859 E-0.02469
G1 X108.380 Y113.872 E-0.04078
G1 X108.165 Y113.845 E-0.05023
G1 X108.026 Y113.780 E-0.03536
G1 X107.898 Y113.677 E-0.03795
G1 X107.783 Y113.468 E-0.05504
G1 X107.763 Y113.315 E-0.03570
G1 X107.788 Y113.124 E-0.04433
G1 X107.868 Y113.018 E-0.03068
G1 X108.260 Y112.767 E-0.10758
G1 X108.865 Y112.507 E-0.15191
G1 X108.888 Y112.930 E-0.09784
G1 E-0.04000 F2100.00000
G1 Z0.800 F10800.000
G1 X128.424 Y113.033
G1 Z0.200
G1 E0.80000 F2100.00000
G1 F1200.000
G1 X128.424 Y102.971 E0.31548
G1 X136.486 Y102.971 E0.25277
G1 X136.486 Y113.033 E0.31548
G1 X128.484 Y113.033 E0.25089
G1 X128.801 Y112.656 F10800.000
G1 F1200.000
G1 X128.801 Y103.348 E0.29183
G1 X136.109 Y103.348 E0.22912
G1 X136.109 Y112.656 E0.29183
G1 X128.861 Y112.656 E0.22724
G1 X129.179 Y112.279 F10800.000
G1 F1200.000
G1 X129.179 Y103.725 E0.26818
G1 X135.732 Y103.725 E0.20548
G1 X135.732 Y112.279 E0.26818
G1 X129.239 Y112.279 E0.20359
G1 X128.797 Y112.399 F10800.000
G1 F8640.000
G1 X129.215 Y108.987 E-0.76000
G1 E-0.04000 F2100.00000
G1 Z0.800 F10800.000
G1 X115.196 Y109.897
G1 Z0.200
G1 E0.80000 F2100.00000
G1 F1200.000
G1 X115.594 Y110.295 E0.01766
G1 X115.947 Y110.792 E0.01911
G1 X116.152 Y111.168 E0.01342
G1 X116.371 Y111.702 E0.01809
G1 X116.514 Y112.210 E0.01655
G1 X116.615 Y112.774 E0.01796
G1 X116.653 Y113.452 E0.02128
G1 X116.626 Y113.986 E0.01677
G1 X116.572 Y114.387 E0.01268
G1 X116.412 Y115.026 E0.02065
G1 X116.205 Y115.541 E0.01741
G1 X116.009 Y115.901 E0.01286
G1 X115.669 Y116.377 E0.01834
G1 X115.133 Y116.892 E0.02330
G1 X114.478 Y117.288 E0.02401
G1 X113.750 Y117.524 E0.02401
G1 X113.036 Y117.596 E0.02250
G1 X112.584 Y117.567 E0.01419
G1 X112.124 Y117.492 E0.01463
G1 X111.677 Y117.337 E0.01482
G1 X111.249 Y117.133 E0.01487
G1 X111.064 Y116.999 E0.00716
G1 X110.512 Y117.461 E0.02255
G1 X109.873 Y117.805 E0.02277
G1 X109.339 Y117.976 E0.01758
G1 X108.821 Y118.060 E0.01643
G1 X108.447 Y118.080 E0.01176
G1 X108.009 Y118.051 E0.01374
G1 X107.392 Y117.941 E0.01967
G1 X106.785 Y117.731 E0.02012
G1 X106.216 Y117.431 E0.02019
G1 X105.835 Y117.162 E0.01462
G1 X105.356 Y116.725 E0.02032
G1 X104.938 Y116.195 E0.02117
G1 X104.689 Y115.790 E0.01490
G1 X104.407 Y115.184 E0.02094
G1 X104.203 Y114.482 E0.02293
G1 X104.104 Y113.783 E0.02213
G1 X104.082 Y113.301 E0.01515
G1 X104.107 Y112.823 E0.01499
G1 X104.171 Y112.326 E0.01571
G1 X104.302 Y111.839 E0.01583
G1 X104.470 Y111.372 E0.01556
G1 X104.675 Y110.969 E0.01416
G1 X105.018 Y110.431 E0.02000
G1 X105.457 Y109.925 E0.02101
G1 X106.039 Y109.448 E0.02361
G1 X106.685 Y109.072 E0.02340
G1 X107.248 Y108.857 E0.01892
G1 X107.631 Y108.782 E0.01224
G1 X107.967 Y108.741 E0.01063
G1 X108.520 Y108.811 E0.01747
G1 X108.958 Y108.983 E0.01476
G1 X109.439 Y109.337 E0.01871
G1 X109.695 Y109.685 E0.01353
G1 X109.886 Y110.046 E0.01280
G1 X109.982 Y110.438 E0.01268
